X:152
T:Good Natured Man, The
T:Steamboat, The
R:hornpipe
H:Sometimes attributed to James Hill, but first appears in print in 1831,
H:so it's improbable that Hill composed it.
Z:id:hn-hornpipe-152
M:C|
L:1/8
K:G
(3def | g2bg d2gd | BcdB G2AB | cded cBAG | FGEF D2ef |
g2bg degd | BcdB GBAB | cded cBAF |1 A2GF G2 :|2 A2GF GABc ||
|: d^cdB g2gf | edec a2ag | f2fa g2ga | fgaf dfef |
g2bg d2gd | BcdB GBAB | cded cBAF |1 A2GF GABc :|2 A2GF G2 ||


This file contains 100 jigs (#1 - #100).
You can find more abc tune files at http://www.norbeck.nu/abc/
I've transcribed them as I have learnt them, which does not necessarily mean
that I play them that way nowadays. Many of the tunes include variations and
different versions. If there is a source (S:) or discography (D:) included the
version transcribed might still not be exactly as that source played the tune,
since I might have changed the tune around a bit when I learnt it.
The tunes were learnt from sessions, from friends or from recordings.
When I've included discography, it's often just a reference to what recordings
the tune appears on.

Last updated 5 December 2018.

(c) Copyright 1996-2018 Henrik Norbeck. This file:
- May be distributed with restrictions below.
- May not be used for commercial purposes (such as printing a tune book to sell).
- This file (or parts of it) may not be made available on a web page for
  download without permission from me.
- This copyright notice must be kept, except when e-mailing individual tunes.
- May be printed on paper for personal use.
- Questions? E-mail: henrik@norbeck.nu

